_includes/icons/ios-chat-message.svg

<svg fill="#666" height="50" viewBox="0 0 50 50" width="50" xmlns="http://www.w3.org/2000/svg"><path d="m25 4.0625c-12.585937 0-22.9375 8.863281-22.9375 19.9375 0 6.425781 3.5625 12.09375 8.9375 15.71875-.007812.214844 0 .546875-.28125 1.59375-.347656 1.292969-1.035156 3.125-2.46875 5.15625l-1.03125 1.4375 1.78125.03125c6.175781.027344 9.753906-4.03125 10.3125-4.6875 1.824219.40625 3.722656.6875 5.6875.6875 12.582031 0 22.9375-8.863281 22.9375-19.9375s-10.355469-19.9375-22.9375-19.9375zm0 1.875c11.714844 0 21.0625 8.152344 21.0625 18.0625s-9.347656 18.0625-21.0625 18.0625c-2.003906 0-3.949219-.242187-5.78125-.6875l-.5625-.125-.375.46875s-2.890625 3.257813-7.5 4.03125c.832031-1.492187 1.464844-2.878906 1.75-3.9375.398438-1.480469.40625-2.5.40625-2.5v-.5l-.4375-.28125c-5.226562-3.3125-8.5625-8.589844-8.5625-14.53125 0-9.910156 9.34375-18.0625 21.0625-18.0625z"/></svg>

<svg xmlns="http://www.w3.org/2000/svg" viewBox="0 0 50 50" width="50" height="50" fill="#666"><path d="M 25 4.0625 C 12.414063 4.0625 2.0625 12.925781 2.0625 24 C 2.0625 30.425781 5.625 36.09375 11 39.71875 C 10.992188 39.933594 11 40.265625 10.71875 41.3125 C 10.371094 42.605469 9.683594 44.4375 8.25 46.46875 L 7.21875 47.90625 L 9 47.9375 C 15.175781 47.964844 18.753906 43.90625 19.3125 43.25 C 21.136719 43.65625 23.035156 43.9375 25 43.9375 C 37.582031 43.9375 47.9375 35.074219 47.9375 24 C 47.9375 12.925781 37.582031 4.0625 25 4.0625 Z M 25 5.9375 C 36.714844 5.9375 46.0625 14.089844 46.0625 24 C 46.0625 33.910156 36.714844 42.0625 25 42.0625 C 22.996094 42.0625 21.050781 41.820313 19.21875 41.375 L 18.65625 41.25 L 18.28125 41.71875 C 18.28125 41.71875 15.390625 44.976563 10.78125 45.75 C 11.613281 44.257813 12.246094 42.871094 12.53125 41.8125 C 12.929688 40.332031 12.9375 39.3125 12.9375 39.3125 L 12.9375 38.8125 L 12.5 38.53125 C 7.273438 35.21875 3.9375 29.941406 3.9375 24 C 3.9375 14.089844 13.28125 5.9375 25 5.9375 Z"/></svg>
